X: 2
T: Ingonish
R: jig
M: 6/8
L: 1/8
K: Edor
Bee efg|fef dBA|Bee efg|afe dcA|Bee efg|fef dBA|(3Bcd B AFD|~E3 EFA:||:BEE BEB|AFD DFA|BEE BEB|ABc d2c|BEE BEB|AFD DFA|(3Bcd B AFD|~E3 EFA:|


Tune 780	Setting 13909

